X: 23436
T: Leslie's March
R: jig
M: 6/8
K: Dmajor
|:d3 d3|dcB ABc|dcB ABc|def efd|
e3 ede|fed eag|fed BAB|1 def e3:|2 def efd||
|:fed eAA|fed eAA|gfe fBB|gfe fBB|
fed eAA|fed eag|fed BAB|1 def efd:|2 def e3||

